resources/svg/audio-document-o.svg

<svg xmlns="http://www.w3.org/2000/svg" viewBox="0 0 15 15" fill="none"><path d="M13.5 3.5H14V3.29289L13.8536 3.14645L13.5 3.5ZM10.5 0.5L10.8536 0.146447L10.7071 0H10.5V0.5ZM7.5 4.5L7.9 4.2C7.77087 4.02783 7.54606 3.9576 7.34189 4.02566C7.13771 4.09372 7 4.28478 7 4.5H7.5ZM7.8 4.9L8.2 4.6L7.8 4.9ZM12.5 14H2.5V15H12.5V14ZM2 13.5V1.5H1V13.5H2ZM13 3.5V13.5H14V3.5H13ZM2.5 1H10.5V0H2.5V1ZM10.1464 0.853553L13.1464 3.85355L13.8536 3.14645L10.8536 0.146447L10.1464 0.853553ZM2.5 14C2.22386 14 2 13.7761 2 13.5H1C1 14.3284 1.67157 15 2.5 15V14ZM12.5 15C13.3284 15 14 14.3284 14 13.5H13C13 13.7761 12.7761 14 12.5 14V15ZM2 1.5C2 1.22386 2.22386 1 2.5 1V0C1.67157 0 1 0.671574 1 1.5H2ZM6 11C5.44772 11 5 10.5523 5 10H4C4 11.1046 4.89543 12 6 12V11ZM7 10C7 10.5523 6.55228 11 6 11V12C7.10457 12 8 11.1046 8 10H7ZM6 9C6.55228 9 7 9.44772 7 10H8C8 8.89543 7.10457 8 6 8V9ZM6 8C4.89543 8 4 8.89543 4 10H5C5 9.44772 5.44772 9 6 9V8ZM7 6.5V10H8V6.5H7ZM8 7V4.5H7V7H8ZM7.1 4.8L7.4 5.2L8.2 4.6L7.9 4.2L7.1 4.8ZM7.4 5.2C8.24984 6.33313 9.58359 7 11 7V6C9.89835 6 8.86099 5.48132 8.2 4.6L7.4 5.2Z" fill="black"/></svg>

<svg xmlns="http://www.w3.org/2000/svg" viewBox="0 0 15 15" fill="none"><path d="M13.5 3.5h.5v-.207l-.146-.147-.354.354zm-3-3l.354-.354L10.707 0H10.5v.5zm-3 4l.4-.3a.5.5 0 00-.9.3h.5zm.3.4l.4-.3-.4.3zm4.7 9.1h-10v1h10v-1zM2 13.5v-12H1v12h1zm11-10v10h1v-10h-1zM2.5 1h8V0h-8v1zm7.646-.146l3 3 .708-.708-3-3-.708.708zM2.5 14a.5.5 0 01-.5-.5H1A1.5 1.5 0 002.5 15v-1zm10 1a1.5 1.5 0 001.5-1.5h-1a.5.5 0 01-.5.5v1zM2 1.5a.5.5 0 01.5-.5V0A1.5 1.5 0 001 1.5h1zM6 11a1 1 0 01-1-1H4a2 2 0 002 2v-1zm1-1a1 1 0 01-1 1v1a2 2 0 002-2H7zM6 9a1 1 0 011 1h1a2 2 0 00-2-2v1zm0-1a2 2 0 00-2 2h1a1 1 0 011-1V8zm1-1.5V10h1V6.5H7zM8 7V4.5H7V7h1zm-.9-2.2l.3.4.8-.6-.3-.4-.8.6zm.3.4A4.5 4.5 0 0011 7V6a3.5 3.5 0 01-2.8-1.4l-.8.6z" fill="currentColor"/></svg>
